svgs/sharp-solid/keyboard-left.svg

<svg xmlns="http://www.w3.org/2000/svg" viewBox="0 0 640 512"><!--! Font Awesome Pro 6.6.0 by @fontawesome - https://fontawesome.com License - https://fontawesome.com/license (Commercial License) Copyright 2024 Fonticons, Inc. --><path d="M160 64l480 0 0 384-480 0 0-384zm64 64l0 64 64 0 0-64-64 0zm64 96l-64 0 0 64 64 0 0-64zm-64 96l0 64 64 0 0-64-64 0zM384 128l-64 0 0 64 64 0 0-64zm-64 96l0 64 64 0 0-64-64 0zm160 96l-160 0 0 64 160 0 0-64zM416 128l0 64 64 0 0-64-64 0zm64 96l-64 0 0 64 64 0 0-64zm32-96l0 64 64 0 0-64-64 0zm64 96l-64 0 0 64 64 0 0-64zm-64 96l0 64 64 0 0-64-64 0zM0 256l96-96 32 0 0 192-32 0L0 256z"/></svg>

<svg xmlns="http://www.w3.org/2000/svg" viewBox="0 0 640 512"><!--! Font Awesome Pro 6.4.2 by @fontawesome - https://fontawesome.com License - https://fontawesome.com/license (Commercial License) Copyright 2023 Fonticons, Inc. --><path d="M160 64H640V448H160V64zm64 64v64h64V128H224zm64 96H224v64h64V224zm-64 96v64h64V320H224zM384 128H320v64h64V128zm-64 96v64h64V224H320zm160 96H320v64H480V320zM416 128v64h64V128H416zm64 96H416v64h64V224zm32-96v64h64V128H512zm64 96H512v64h64V224zm-64 96v64h64V320H512zM0 256l96-96h32V352H96L0 256z"/></svg>
